shader volumeTexture(
    point Vector = P,
    output color colorData = 1,
    output float nonColorData = 1, )
{
    float x = Vector[0];
    float y = Vector[1];
    int to_write = Vector[2];

    string path = "/Users/loganaw/Desktop/nTracer_sample/slices/";
    string file = format("nTracer_sample-%05d.png", to_write);
    string fname = concat(path, file);

    colorData = texture(fname, x, y);
    nonColorData = 0;
}